public/logos/18_new_england/BP.svg

<svg xmlns="http://www.w3.org/2000/svg" id="art" viewBox="0 0 34.02 34.02"><defs><clipPath id="clip-path"><circle cx="17.01" cy="17.01" r="16.67" style="fill:none"/></clipPath><style>.cls-4{fill:#231f20}</style></defs><g style="clip-path:url(#clip-path)"><path d="M37.84 17A20.84 20.84 0 1 1 17-3.83 20.83 20.83 0 0 1 37.84 17" style="fill:#bdaf32"/><path d="M12.42 9.52a2.93 2.93 0 0 1 2.36 1 4 4 0 0 1 .85 2.69 3.3 3.3 0 0 1-.33 1.48 4 4 0 0 1-.88 1.24 3.74 3.74 0 0 1 1.52 1.48 4.37 4.37 0 0 1 .52 2.18 4.9 4.9 0 0 1-.46 2.28 3.56 3.56 0 0 1-1.43 1.52 4.1 4.1 0 0 1-2.12.54H8.7v-.15a2.4 2.4 0 0 0 .35-1.11v-11.9a2.54 2.54 0 0 0-.35-1.11v-.14Zm.52 5.14a2 2 0 0 0 .53-1.44 2 2 0 0 0-.3-1.15.88.88 0 0 0-.77-.45h-.92v3.64a1.87 1.87 0 0 0 1.46-.6m.56 6.7a3 3 0 0 0 .43-1.72 3.7 3.7 0 0 0-.36-1.78 1.15 1.15 0 0 0-1.06-.64h-1V22h.92a1.26 1.26 0 0 0 1.07-.64M21.77 9.52a3.47 3.47 0 0 1 3.29 2.08 5.16 5.16 0 0 1 .48 2.28 5.2 5.2 0 0 1-.54 2.37 3.7 3.7 0 0 1-1.45 1.58 4.13 4.13 0 0 1-2.15.56h-.9v4.28a1.93 1.93 0 0 0 .5 1.11v.15h-3.26v-.15a2.4 2.4 0 0 0 .35-1.11v-11.9a2.54 2.54 0 0 0-.35-1.11v-.14Zm.74 6.18a3.16 3.16 0 0 0 .41-1.7 2.9 2.9 0 0 0-.52-1.81 1.7 1.7 0 0 0-1.4-.72h-.47v4.88h.88a1.24 1.24 0 0 0 1.1-.65" class="cls-4"/></g></svg>

<svg id="art" xmlns="http://www.w3.org/2000/svg" xmlns:xlink="http://www.w3.org/1999/xlink" viewBox="0 0 34.02 34.02"><defs><style>.cls-1{fill:none;}.cls-2{clip-path:url(#clip-path);}.cls-3{fill:#bdaf32;}.cls-4{fill:#231f20;}</style><clipPath id="clip-path"><circle class="cls-1" cx="17.01" cy="17.01" r="16.67"/></clipPath></defs><g class="cls-2"><path class="cls-3" d="M37.84,17A20.84,20.84,0,1,1,17-3.83,20.83,20.83,0,0,1,37.84,17Z"/><path class="cls-4" d="M12.42,9.52a2.93,2.93,0,0,1,2.36,1,4,4,0,0,1,.85,2.69,3.27,3.27,0,0,1-.33,1.48,4,4,0,0,1-.88,1.24,3.74,3.74,0,0,1,1.52,1.48,4.37,4.37,0,0,1,.52,2.18A4.9,4.9,0,0,1,16,21.87a3.56,3.56,0,0,1-1.43,1.52,4.1,4.1,0,0,1-2.12.54H8.7v-.15a2.39,2.39,0,0,0,.35-1.11V10.77A2.54,2.54,0,0,0,8.7,9.66V9.52Zm.52,5.14a2,2,0,0,0,.53-1.44,2,2,0,0,0-.3-1.15.88.88,0,0,0-.77-.45h-.92v3.64A1.87,1.87,0,0,0,12.94,14.66Zm.56,6.7a3,3,0,0,0,.43-1.72,3.72,3.72,0,0,0-.36-1.78,1.15,1.15,0,0,0-1.06-.64h-1V22h.92A1.26,1.26,0,0,0,13.5,21.36Z"/><path class="cls-4" d="M21.77,9.52a3.47,3.47,0,0,1,3.29,2.08,5.16,5.16,0,0,1,.48,2.28A5.17,5.17,0,0,1,25,16.25a3.7,3.7,0,0,1-1.45,1.58,4.13,4.13,0,0,1-2.15.56h-.9v4.28A1.93,1.93,0,0,0,21,23.78v.15H17.74v-.15a2.39,2.39,0,0,0,.35-1.11V10.77a2.54,2.54,0,0,0-.35-1.11V9.52Zm.74,6.18A3.16,3.16,0,0,0,22.92,14a2.9,2.9,0,0,0-.52-1.81A1.7,1.7,0,0,0,21,11.47h-.47v4.88h.88A1.24,1.24,0,0,0,22.51,15.7Z"/></g></svg>
